X: 1
T: Maudabawn Chapel
R: reel
C: Ed Reavy
N: The local chapel in Ed's parish.
Z: Joe Reavy
M: 4/4
L: 1/8
K: G
|: G3D  E2DB, | G,A,B,D EGDB, | G,A,B,D GABd  | gabg  eaaf  |
|  gbag efge  | dged    B^cde | g2fa    gedB  | AcBA  GEED :|
|: E2BE dEBE  | Ed^cB   AFDF  | ~E3F    GFGB  | AF~F2 DFAF  |
|  EBBA B3B   | BAGA    B^cde | f2af    gfe^c | dBAF  GEED :|
